X: 17436
T: Highland Kitty
R: jig
M: 6/8
K: Bminor
BBB d2 f|BBB d2 B|c2 A AAA|c2 A ecA|
BBB d2 f|BBB d2 B|c2 A ecA|BBB f3:|
d2 a f2 a|d2 a afd|c2 e A<Ae|c2 e ecA|
d2 a f2 a|d2 a afd|c2 A ecA|BBB f3:|

